assets/img/logo.svg

<svg width="100" height="51" viewBox="0 0 100 51" fill="none" xmlns="http://www.w3.org/2000/svg">
<g clip-path="url(#clip0_0_1363)">
<path d="M15.5649 50.9999C13.07 50.9999 11.1792 49.0412 11.1792 46.4722C11.1792 43.8828 13.07 41.9241 15.5649 41.9241C17.6315 41.9241 19.2807 43.3253 19.6749 45.3896H17.8324C17.4846 44.3624 16.6358 43.7205 15.5642 43.7205C14.1268 43.7205 13.0404 44.908 13.0404 46.4722C13.0404 48.0364 14.1268 49.2035 15.5642 49.2035C16.6822 49.2035 17.5432 48.5114 17.8491 47.4103H19.7006C19.3142 49.561 17.6675 50.9999 15.5642 50.9999H15.5649Z" fill="#E53057"/>
<path d="M31.9521 49.0658V50.8161H26.8549V42.1123H28.6928V49.0658H31.9521Z" fill="#E53057"/>
<path d="M44.0632 49.162H40.6841L40.1013 50.8113H38.1506L41.4795 42.1108H43.2144L46.6515 50.8159H44.6551L44.0632 49.162ZM41.2567 47.5219H43.4855L42.3656 44.4106L41.2567 47.5219Z" fill="#E53057"/>
<path d="M52.7573 47.993H54.6095C54.6095 48.8341 55.2882 49.2392 56.0392 49.2392C56.7308 49.2392 57.407 48.8651 57.407 48.2166C57.407 47.5424 56.6342 47.359 55.7114 47.1366C54.4311 46.8134 52.8778 46.4327 52.8778 44.5584C52.8778 42.8887 54.0782 41.9492 55.9587 41.9492C57.9113 41.9492 59.0215 43.0167 59.0215 44.7498H57.2054C57.2054 44.001 56.6014 43.6493 55.9174 43.6493C55.3217 43.6493 54.7183 43.9079 54.7183 44.4779C54.7183 45.0902 55.4563 45.2749 56.3554 45.4959C57.6505 45.8317 59.2766 46.2453 59.2766 48.1942C59.2766 50.0731 57.8147 50.9848 56.0565 50.9848C54.1007 50.9848 52.7573 49.8626 52.7573 47.993Z" fill="#E53057"/>
<path d="M66.1003 47.993H67.9525C67.9525 48.8341 68.6313 49.2392 69.3822 49.2392C70.0745 49.2392 70.75 48.8651 70.75 48.2166C70.75 47.5424 69.9772 47.359 69.055 47.1366C67.7741 46.8134 66.2214 46.4327 66.2214 44.5584C66.2214 42.8887 67.4212 41.9492 69.3017 41.9492C71.2543 41.9492 72.3646 43.0167 72.3646 44.7498H70.544C70.544 44.001 69.9405 43.6493 69.256 43.6493C68.6602 43.6493 68.0562 43.9079 68.0562 44.4779C68.0562 45.0902 68.7948 45.2749 69.6932 45.4959C70.989 45.8317 72.6144 46.2453 72.6144 48.1942C72.6144 50.0731 71.1532 50.9848 69.3944 50.9848C67.4412 50.9848 66.1003 49.8626 66.1003 47.993Z" fill="#E53057"/>
<path d="M24.1108 19.4421H9.83777V24.464H24.1108V19.4421Z" fill="#E53057"/>
<path d="M24.7889 33.7053H9.83777V38.7271H24.7889V33.7053Z" fill="#E53057"/>
<path d="M24.7889 6.78198H9.83777V11.8038H24.7889V6.78198Z" fill="#E53057"/>
<path d="M35.8857 38.7265H30.4619V2.40137H35.8857V38.7265Z" fill="#261D68"/>
<path d="M49.3924 38.7264H43.9692V14.3667H49.3924V38.7264Z" fill="#261D68"/>
<path d="M72.6589 28.5231V30.1797C72.6589 35.949 69.3745 39.1012 64.0029 39.1012C58.5797 39.1012 55.3462 35.949 55.3462 30.1797V9.02563H60.7693V16.6639H70.8344V21.4727H60.7693V30.181C60.7693 32.9057 61.5518 34.1875 64.0029 34.1875C66.4018 34.1875 67.2358 32.9057 67.2358 30.181V28.5245L72.6589 28.5231Z" fill="#261D68"/>
<path d="M99.9826 25.73C99.9886 25.6077 99.9856 25.485 99.9736 25.3632C99.9292 24.5512 99.8154 23.7448 99.6335 22.9532C99.5691 22.6893 99.4906 22.4254 99.4101 22.1655C99.3503 21.9477 99.2785 21.7336 99.195 21.5242C99.1151 21.3224 99.034 21.1284 98.9535 20.9305C98.6849 20.3418 98.3678 19.7776 98.0055 19.2442C97.3476 18.2789 96.5304 17.4385 95.5905 16.761C94.4954 15.9616 93.2681 15.3718 91.968 15.02C92.59 15.0724 93.2064 15.1797 93.8105 15.3406C92.1361 14.483 90.1435 13.9941 87.8534 13.9941C84.911 13.9941 82.156 14.9105 79.9915 16.5961C77.2718 18.7217 75.4918 22.0758 75.4918 26.3917C75.4918 33.9785 81.2795 39.1006 88.3184 39.1006C91.7084 39.1006 94.6335 38.1381 97.0305 36.2143L94.2664 32.2098C92.7015 33.3373 90.9305 34.2991 88.3184 34.2991C85.1879 34.2991 82.0664 32.32 81.2254 28.5266H99.7945C99.9384 27.769 100.007 26.9985 100.001 26.2268V26.0948C100.004 25.9729 99.9975 25.851 99.9826 25.73ZM81.2254 23.9336C81.9589 20.7266 84.41 18.8022 87.8979 18.8022C91.19 18.8022 93.587 20.6171 94.4725 23.9336H81.2254Z" fill="#261D68"/>
<path d="M11.5914 6.75952H5.72192V38.7304H11.5914V6.75952Z" fill="#E53057"/>
<path d="M2.05565 6.75952H0V38.7304H2.05565V6.75952Z" fill="#E53057"/>
<path d="M2.63843 47.3057L3.88779 51.0001L5.13716 47.3057H2.63843Z" fill="#E53057"/>
<path d="M7.72159 39.6653L5.39352 46.5469H2.38217L0.0560303 39.6653H7.72159Z" fill="#E53057"/>
<path d="M49.4462 9.97437C50.6545 8.40865 50.3951 6.1359 48.8667 4.89804C47.3383 3.66017 45.1197 3.92595 43.9113 5.49167C42.703 7.05739 42.9624 9.33014 44.4908 10.568C46.0192 11.8059 48.2378 11.5401 49.4462 9.97437Z" fill="#261D68"/>
<path d="M95.5905 17.8521V17.2815C93.4704 16.028 90.868 14.3859 87.8625 14.3952C85.0089 14.3952 82.2989 17.3362 79.9915 18.7111V9.24536L87.791 13.8542L95.5905 9.25328V18.5066C95.016 18.2414 94.5169 17.0638 95.5905 17.8521Z" fill="#261D68"/>
<path d="M87.7904 7.91669L81.0999 3.95835L87.7904 0L94.4809 3.95835L87.7904 7.91669Z" fill="#E53057"/>
<path d="M78.8014 7.72416V13.9005L79.4184 14.5325L78.5148 15.4581L77.6113 14.5325L78.2199 13.9005V7.37649L76.7709 6.51489L80.2053 4.48096L87.7904 8.97038L88.0139 8.8424L95.3755 4.48096L98.8106 6.51489L87.7904 13.0297L78.8014 7.72416Z" fill="#E53057"/>
<path d="M100.001 26.0961H99.9918C99.9918 25.9774 99.9918 25.8487 99.9827 25.73C99.9979 25.8514 100.004 25.9738 100.001 26.0961Z" fill="white"/>
</g>
<defs>
<clipPath id="clip0_0_1363">
<rect width="100" height="51" fill="white"/>
</clipPath>
</defs>
</svg>

<svg xmlns="http://www.w3.org/2000/svg" width="100" height="51" fill="none"><g clip-path="url(#a)"><path fill="#E53057" d="M15.565 51c-2.495 0-4.386-1.959-4.386-4.528 0-2.59 1.891-4.548 4.386-4.548 2.066 0 3.716 1.401 4.11 3.466h-1.843c-.347-1.028-1.196-1.67-2.268-1.67-1.437 0-2.524 1.188-2.524 2.752 0 1.564 1.087 2.731 2.524 2.731 1.118 0 1.98-.692 2.285-1.793h1.852c-.387 2.151-2.034 3.59-4.137 3.59ZM31.952 49.066v1.75h-5.097v-8.704h1.838v6.954h3.26ZM44.063 49.162h-3.379l-.583 1.65h-1.95l3.328-8.701h1.735l3.438 8.705h-1.997l-.592-1.654Zm-2.806-1.64h2.229l-1.12-3.111-1.11 3.11ZM52.757 47.993h1.852c0 .841.68 1.246 1.43 1.246.692 0 1.368-.374 1.368-1.022 0-.675-.773-.858-1.696-1.08-1.28-.324-2.833-.704-2.833-2.579 0-1.67 1.2-2.609 3.08-2.609 1.953 0 3.064 1.068 3.064 2.8h-1.817c0-.748-.604-1.1-1.288-1.1-.595 0-1.199.259-1.199.829 0 .612.738.797 1.637 1.018 1.296.336 2.922.75 2.922 2.698 0 1.88-1.462 2.79-3.22 2.79-1.956 0-3.3-1.121-3.3-2.991ZM66.1 47.993h1.853c0 .841.678 1.246 1.43 1.246.692 0 1.367-.374 1.367-1.022 0-.675-.773-.858-1.695-1.08-1.28-.324-2.834-.704-2.834-2.579 0-1.67 1.2-2.609 3.08-2.609 1.953 0 3.064 1.068 3.064 2.8h-1.821c0-.748-.603-1.1-1.288-1.1-.596 0-1.2.259-1.2.829 0 .612.739.797 1.637 1.018 1.296.336 2.921.75 2.921 2.698 0 1.88-1.46 2.79-3.22 2.79-1.953 0-3.294-1.121-3.294-2.991ZM24.11 19.442H9.839v5.022H24.11v-5.022ZM24.789 33.705H9.838v5.022h14.95v-5.022ZM24.789 6.782H9.838v5.022h14.95V6.782Z"/><path fill="#261D68" d="M35.886 38.727h-5.424V2.4h5.424v36.326ZM49.392 38.726H43.97v-24.36h5.423v24.36ZM72.659 28.523v1.657c0 5.769-3.285 8.921-8.656 8.921-5.423 0-8.657-3.152-8.657-8.921V9.026h5.423v7.638h10.065v4.809H60.77v8.708c0 2.725.783 4.006 3.234 4.006 2.399 0 3.233-1.281 3.233-4.006v-1.657h5.423ZM99.983 25.73a2.495 2.495 0 0 0-.01-.367 14.232 14.232 0 0 0-.34-2.41 13.48 13.48 0 0 0-.223-.787 6.071 6.071 0 0 0-.215-.642c-.08-.202-.161-.396-.241-.594a11.488 11.488 0 0 0-.948-1.686 10.004 10.004 0 0 0-2.415-2.483 11.031 11.031 0 0 0-3.623-1.741c.622.052 1.238.16 1.843.32-1.675-.857-3.668-1.346-5.958-1.346-2.942 0-5.697.917-7.861 2.602-2.72 2.126-4.5 5.48-4.5 9.796 0 7.586 5.787 12.709 12.826 12.709 3.39 0 6.316-.963 8.713-2.887l-2.765-4.004c-1.565 1.127-3.336 2.09-5.948 2.09-3.13 0-6.252-1.98-7.093-5.773h18.57c.143-.758.212-1.529.206-2.3v-.132a2.485 2.485 0 0 0-.018-.365Zm-18.758-1.796c.734-3.207 3.185-5.132 6.673-5.132 3.292 0 5.689 1.815 6.575 5.132H81.224Z"/><path fill="#E53057" d="M11.591 6.76h-5.87v31.97h5.87V6.76ZM2.056 6.76H0v31.97h2.056V6.76ZM2.638 47.306 3.888 51l1.25-3.694h-2.5ZM7.722 39.665l-2.328 6.882H2.382L.056 39.665h7.666Z"/><path fill="#261D68" d="M49.446 9.974c1.209-1.565.95-3.838-.58-5.076a3.471 3.471 0 0 0-4.955.594c-1.208 1.565-.949 3.838.58 5.076a3.471 3.471 0 0 0 4.955-.594ZM95.59 17.852v-.57c-2.12-1.254-4.722-2.896-7.728-2.887-2.853 0-5.563 2.941-7.87 4.316V9.245l7.799 4.61 7.8-4.602v9.254c-.575-.266-1.074-1.443 0-.655Z"/><path fill="#E53057" d="M87.79 7.917 81.1 3.958 87.79 0l6.69 3.958-6.69 3.959Z"/><path fill="#E53057" d="M78.801 7.724V13.9l.617.633-.903.925-.904-.925.609-.633V7.376l-1.45-.861 3.435-2.034 7.585 4.49.224-.129 7.362-4.361 3.435 2.034-11.02 6.515-8.99-5.306Z"/><path fill="#fff" d="M100.001 26.096h-.01c0-.119 0-.247-.008-.366.015.121.021.244.018.366Z"/></g><defs><clipPath id="a"><path fill="#fff" d="M0 0h100v51H0z"/></clipPath></defs></svg>
